X:232
T: Xian hua
N: C0369
O: China, Hebei, Jizhong
S: IV, 29]
N: sehr original; +++ Grundton wechselt von F nach C!! ++++ Alle 7 klingen
N: tiefer,  mit Pfeil nach unten in der Vorlage notiert ).
R: Xiaodiao, Dui hua. Xin minge. Xushu laodong shenghuo]
M: 2/4
L: 1/16
K: F
d6c2 | d6f2 | A3cA3c | d2c2d2z2
c2c4A2 | G4E2G2 | c6E2 | D6z2
d6c2 | d6f2 | A3cA3c | d2c2d2z2
c2c4A2 | G4E2G2 | c6E2 | D6z2
A3GF2G2 | A2G2A4
c6E2 | D6z2
A3GF2G2 | A2G2A4
c6E2 | D6z2
d2e2A4 | d2e2A4 | d3cA2c2 | d2c2d4
c2c4A2 | G4E2G2 | c6E2 | D8

